X: 4527
T: Border Collie, The
R: reel
M: 4/4
K: Amajor
BF F2 BFcF|BF F2 AdcA|BF F2 BFBc|dfbf afec|
BF F2 BFAc|BF F2 AdcA|BF F2 BFBc|dfbf afec||
A2 c/B/A eA c/B/A|EABF AFEF|AB c/B/A eAce|fdfb afec|
A2 c/B/A eA c/B/A|EFAc BABc|~d3 e fdfb|afec Bcdc||

